!!!!SEGMENT: czech20.krn
!!!OTL@EN: The Cruel Brother: "A rider rides cheerfully"
!!!OTL@@DE: Der grausame Bruder Es reit' ein Reiter wohlgemut,
!!!ARE: Europa, Osteuropa, Tschechoslowakei, Sudetenland, Deutsch - Proben, Gaidel
!!!ARD1: Europa%Osteuropa%Slovensko@Sudetenland#Deutsch-Proben:
!!!ARL1: 48.86/18.63:
!!!ARD2: Europa%Osteuropa%Tschechoslowakei@Sudetenland#Deutsch-Proben:Gaidel!?
!!!ARL2: ? / ?
!!!YOR: 3, S. 258
!!    ????
!!!SCT: Q1068F
!!!YEM: Copyright 1995, estate of Helmut Schaffrath.
**kern
*ICvox
*Ivox
*M2/4
*k[f#]
*G:
{4d
=1
4g
4b
=2
4.a
8dd
=3
8ccL
8bJ
8a}L
{8gJ
=4
8gL
8bJ
8aL
8gJ
=5
8f#L
8eJ
8d}L
{16d
16dJ
=6
8gL
8bJ
8aL
8gJ
=7
4b
8ccL
8aJ
=8
4g}
==
*-
!!!AGN: ???
!! Melodievergleich zu Q0068A, anderes Lied "Der Gluecksjaeger" .
!!!ONB: ESAC (Essen Associative Code) Database: BALLADE
!!!AMT: simple duple
!!!AIN: vox
!!!EED: Helmut Schaffrath
!!!EEV: 1.1
!!!title: @{OTL} [@{SCT}]
